!!!COM:	Agricola, Alexander
!!!CDT:	~1446-1506/08/15
!!!OPR:	Missa In myne zin
!!!ONM:	2
!!!ONB: Second section (no Kyrie section)
!!!OTL:	Credo
!!!AGN:	Mass; Credo
!!!SCT:	Agr1001c
!!!SCA:	Agr1001c
!!!voices:	4
!!!voices-OPR:	4
**kern	**kern	**kern	**kern
*staff4	*staff3	*staff2	*staff1
*Ivox	*Ivox	*Ivox	*Ivox
*I"Bassus	*I"Tenor	*I"Contratenor	*I"Superius
*I'B	*I'T	*I'Ct	*I'S
*>[A,B,C]	*>[A,B,C]	*>[A,B,C]	*>[A,B,C]
*>A	*>A	*>A	*>A
*clefF4	*clefGv2	*clefGv2	*clefG2
*k[b-]	*k[]	*k[]	*k[]
*M2/1	*M2/1	*M2/1	*M2/1
*met(C|)	*met(C|)	*met(C|)	*met(C|)
!!section: Patrem omnipotentem
!!!OMD: Patrem omnipotentem
=1-	=1-	=1-	=1-
0r	0D	0r	0r
=2	=2	=2	=2
0r	1A	0r	0r
.	1A	.	.
=3	=3	=3	=3
0r	2.B	0r	0d
.	4c	.	.
.	2d	.	.
.	[2d	.	.
=4	=4	=4	=4
0r	2d]	0r	1a
.	4c	.	.
.	4B	.	.
.	2c	.	1a
.	2d	.	.
=5	=5	=5	=5
0r	0G	2r	2.b
.	.	2.d	.
.	.	.	4cc
.	.	.	2dd
.	.	4c	.
.	.	[2B	[2dd
=6	=6	=6	=6
0r	0r	2B]	2dd]
.	.	4A	4cc
.	.	4G	4b
.	.	2A	2cc
.	.	[2G	2dd
=7	=7	=7	=7
0r	0r	4G]	1g
.	.	4A	.
.	.	4B	.
.	.	4c	.
.	.	2d	2f
.	.	[2e	2g
=8	=8	=8	=8
0r	0r	4e]	2c
.	.	4d	.
.	.	1c	2e
.	.	.	1d
.	.	2B	.
=9	=9	=9	=9
2r	0r	2c	0c
2.C	.	1e	.
4D	.	.	.
4E	.	4d	.
4F	.	4c	.
=10	=10	=10	=10
2G	0r	4B	0r
.	.	4A	.
2.A	.	2c	.
.	.	2F	.
4G	.	.	.
[2F	.	2A	.
=11	=11	=11	=11
2F]	1r	1G	0r
2E	.	.	.
1F	1c	[1F	.
=12	=12	=12	=12
1r	1A	1F]	0r
1F	[1A	1r	.
=13	=13	=13	=13
1D	2A]	0r	0r
.	2B	.	.
1D	2A	.	.
.	4G	.	.
.	4F	.	.
=14	=14	=14	=14
1C	0E	1r	0r
[1C	.	[1e	.
=15	=15	=15	=15
2C]	1r	2e]	0r
2D	.	2f	.
2C	1c	2e	.
4BB-	.	4d	.
4AA	.	4c	.
=16	=16	=16	=16
1GG	1d	1B	0r
1AA	2c	1c	.
.	4B	.	.
.	4A	.	.
=17	=17	=17	=17
1C	2G	0r	0r
.	1A	.	.
1D	.	.	.
.	4B-i	.	.
.	4A	.	.
=18	=18	=18	=18
2.BB-	4B-i	0r	0r
.	4A	.	.
.	4G	.	.
4AA	4F	.	.
1BB-	1G	.	.
=19	=19	=19	=19
0AA	1A	1A	1r
.	1r	1A	1a
=20	=20	=20	=20
1AA	1r	1c	1a
1AA	1A	1c	1cc
=21	=21	=21	=21
1C	1A	1.e	1cc
1C	1c	.	[1g
.	.	2f	.
=22	=22	=22	=22
1.E	1c	1.g	2g]
.	.	.	2a
.	[1G	.	[1b
2F	.	4f	.
.	.	4e	.
=23	=23	=23	=23
1.G	2G]	1.d	2b]
.	2A	.	2cc
.	[1B	.	[1dd
4F	.	2e	.
4E	.	.	.
=24	=24	=24	=24
1.D	2B]	1f	2dd]
.	2c	.	4cc
.	.	.	4b
.	[1d	1r	1a
4E	.	.	.
4F	.	.	.
=25	=25	=25	=25
2G	1d]	2r	2b-i
2D	.	2.F	2.a
1F	[1c	.	.
.	.	4G	4g
.	.	4A	2f
.	.	4B	.
=26	=26	=26	=26
2F	1c]	4c	2a
.	.	4d	.
1E	.	1.e	2.g
.	2B	.	.
.	.	.	4f
2C	2c	.	2e
=27	=27	=27	=27
2D	2A	1d	2f
2GG	2B	.	2.g
2.C	1c	[1e	.
.	.	.	4f
.	.	.	2e
4D	.	.	.
=28	=28	=28	=28
2E	1B-	2e]	2g
1D	.	2f	2.f
.	2A	2d	.
.	.	.	4e
2BB-	2B-i	2f	2d
=29	=29	=29	=29
2C	2G	2e	2e
2F	2A	2c	2.f
2D	1B-	1d	.
.	.	.	4e
2BB-	.	.	2d
=30	=30	=30	=30
2D	1.A	2r	2f
2C	.	1c	2e
2AA	.	.	2c
2BB-	2F	[2B-	2d
=31	=31	=31	=31
2GG	2G	4B-]	4e
.	.	4A	4d
2BB-	2D	2G	1d
1AA	1E	1A	.
.	.	.	2c#i
=32	=32	=32	=32
0BB-	0D	1.F	0d
.	.	2G	.
=33	=33	=33	=33
1AA	1E	1A	1r
1D	1F	2A	[1a
.	.	[2d	.
=34	=34	=34	=34
0AA	0E	2d]	1a]
.	.	4c#i	.
.	.	4B	.
.	.	1c#i	1a
=35	=35	=35	=35
1r	1.D	1.d	1.f
[1A	.	.	.
.	2D	2e	2g
=36	=36	=36	=36
1A]	1D	0f	1.a
1A	1D	.	.
.	.	.	2a
=37	=37	=37	=37
1F	0D	1f	1a
1F	.	[1f	1a
=38	=38	=38	=38
1G	1d	2f]	1b-
.	.	4e	.
.	.	4d	.
1G	1B-	1e	1b-i
=39	=39	=39	=39
1F	2c	2f	1a
.	2A	2d	.
2E	2G	2e	2r
[2D	2A	2f	[2f
=40	=40	=40	=40
2D]	2.F	1d	4f]
.	.	.	4g
4C	.	.	4a
4BB-	4G	.	4b
2AA	2A	1r	2cc
2GG	2d	.	[2b
=41	=41	=41	=41
1AA	2c	1r	4b]
.	.	.	4a
.	4B	.	1a
.	4A	.	.
1E	1B	2r	.
.	.	[2e	2g#i
=42	=42	=42	=42
1F	1A	2e]	1a
.	.	2d	.
1E	1B	1e	1g
=43	=43	=43	=43
1.AA	1A	2.E	2r
.	.	.	1a
.	.	8DL	.
.	.	8EJ	.
.	2.c	2F	.
2AA	.	2E	4g
.	4B	.	4f
=44	=44	=44	=44
2AA	4c	2C	2e
.	4B	.	.
2BB-	1d	2D	2d
1AA	.	1A	1e
.	2c#i	.	.
=45	=45	=45	=45
1r	1d	1B	1d
[1C	[1e	[1c	[1g
=46	=46	=46	=46
1C]	2e]	2c]	1g]
.	2d	4B	.
.	.	4A	.
[1C	2.c	[1e	[1g
.	4B	.	.
=47	=47	=47	=47
2C]	1c	1e]	1g]
2D	.	.	.
1E	1B	1e	1g
=48	=48	=48	=48
1F	1A	2c	1a
.	.	2.d	.
1G	1d	.	1b
.	.	4c	.
.	.	2B	.
=49	=49	=49	=49
1A	2.c	2A	1.cc
.	.	2F	.
.	4B	.	.
[1F	2A	2A	.
.	2G	2B	2b
=50	=50	=50	=50
1F]	1F	2c	1a
.	.	2d	.
1C	1c	1e	[1g
=51	=51	=51	=51
1D	1A	0d	2g]
.	.	.	2f
1BB-	1B-	.	[1f
=52	=52	=52	=52
0C	0G	1.c	2f]
.	.	.	4e
.	.	.	4d
.	.	.	1e
.	.	2B	.
=53	=53	=53	=53
0FF	0F	[0A	0f
=54	=54	=54	=54
0r	1F	1A]	0r
.	2E	2G	.
.	[2F	[2A	.
=55	=55	=55	=55
0r	2F]	2A]	1.cc
.	4E	4G	.
.	4D	4F	.
.	1C	1E	.
.	.	.	2b
=56	=56	=56	=56
0r	0r	2F	1a
.	.	2A	.
.	.	2B	2g
.	.	[2c	[2a
=57	=57	=57	=57
0r	0r	2c]	2a]
.	.	4B	4g
.	.	4A	4f
.	.	2G	2.e
.	.	2A	.
.	.	.	4d
=58	=58	=58	=58
0r	0r	2D	1f
.	.	1d	.
.	.	.	1e
.	.	2c	.
=59	=59	=59	=59
0r	0r	2B	2.d
.	.	2G	.
.	.	.	4e
.	.	2A	2f
.	.	2B	2g
=60	=60	=60	=60
0r	0r	2A	2f
.	.	4G	4e
.	.	4F	4d
.	.	1E	1c
=61	=61	=61	=61
0A	0c	0r	0r
=62	=62	=62	=62
1A	1c	0r	0r
[1A	[1c	.	.
=63	=63	=63	=63
2A]	1c]	0r	0r
4G	.	.	.
4F	.	.	.
2G	1B	.	.
2E	.	.	.
=64	=64	=64	=64
2F	0A	0r	0r
2D	.	.	.
2C	.	.	.
[2D	.	.	.
=65	=65	=65	=65
2D]	1B	0r	0r
4C	.	.	.
4BB-	.	.	.
1AA	[1c	.	.
=66	=66	=66	=66
1r	2c]	0r	0r
.	4B	.	.
.	4A	.	.
1GG	1B	.	.
=67	=67	=67	=67
1.C	1r	0r	0r
.	1G	.	.
2D	.	.	.
=68	=68	=68	=68
1E	1c	0r	0r
1F	1d	.	.
=69	=69	=69	=69
1E	2.e	0r	0r
.	4d	.	.
1AA	4c	.	.
.	4B	.	.
.	2c	.	.
=70	=70	=70	=70
2.D	2B	0r	0r
.	2.A	.	.
8CL	.	.	.
8BB-J	.	.	.
2AA	.	.	.
.	4G	.	.
2D	2F	.	.
=71	=71	=71	=71
2C	2E	0r	0r
2D	1A	.	.
1BB-	.	.	.
.	2G	.	.
=72	=72	=72	=72
0AA	0A	0r	0r
=73	=73	=73	=73
1r	0r	1r	0r
1A	.	1c	.
=74	=74	=74	=74
1.G	0r	2d	0r
.	.	1e	.
2F	.	2d	.
=75	=75	=75	=75
2E	0r	2c	0r
2D	.	2B	.
1E	.	1c	.
=76	=76	=76	=76
2D	0r	1d	0r
2F	.	.	.
2G	.	2e	.
[2A	.	2f	.
=77	=77	=77	=77
2A]	0r	2e	0r
2.B-	.	2.g	.
4A	.	4f	.
4G	.	4e	.
4F	.	4d	.
=78	=78	=78	=78
4G	0r	4e	0r
4F	.	4d	.
4E	.	4c	.
4D	.	4B	.
1E	.	1c	.
=79	=79	=79	=79
0r	1d	0r	1f
.	1d	.	1f
=80	=80	=80	=80
0r	2d	0r	2f
.	1c	.	1e
.	4B	.	2e
.	4A	.	.
=81	=81	=81	=81
0r	2B	0r	2d
.	2A	.	1f
.	1d	.	.
.	.	.	4e
.	.	.	4d
=82	=82	=82	=82
[0C	0c	0G	0e
=83	=83	=83	=83
1C]	0r	1g	0r
1D	.	1f	.
=84	=84	=84	=84
1C	0r	2.e	0r
.	.	4d	.
[1F	.	4c	.
.	.	4B	.
.	.	[2A	.
=85	=85	=85	=85
2F]	0r	2A]	0r
2E	.	2G	.
1D	.	2.F	.
.	.	8EL	.
.	.	8DJ	.
=86	=86	=86	=86
2r	0r	2E	0r
2D	.	2F	.
2.G	.	2E	.
.	.	2d	.
4F	.	.	.
=87	=87	=87	=87
2E	0r	2.g	0r
2D	.	.	.
.	.	4f	.
2C	.	2e	.
2BB-	.	[2d	.
=88	=88	=88	=88
2C	0r	4d]	0r
.	.	4c	.
2E	.	1c	.
1D	.	.	.
.	.	2B	.
=89	=89	=89	=89
0C	1r	0c	1r
.	1e	.	2.g
.	.	.	4a
=90	=90	=90	=90
0r	1e	0r	2b
.	.	.	2.cc
.	1e	.	.
.	.	.	4b
.	.	.	2g
=91	=91	=91	=91
0r	1.d	0r	2b-i
.	.	.	2a
.	.	.	2f
.	4c	.	2g
.	4B	.	.
=92	=92	=92	=92
0r	1c	0r	1e
.	2B	.	2r
.	[2A	.	[2cc
=93	=93	=93	=93
0r	2A]	0r	2cc]
.	2G	.	2b
.	2F	.	2.a
.	[2A	.	.
.	.	.	8gL
.	.	.	8fJ
=94	=94	=94	=94
0r	2A]	0r	1e
.	1G	.	.
.	.	.	2.g
.	2c	.	.
.	.	.	4f
=95	=95	=95	=95
0r	2A	0r	4g
.	.	.	4a
.	1d	.	1b-
.	4c	.	4a
.	4B	.	4g
=96	=96	=96	=96
0r	2A	0r	2f
.	2G	.	2g
.	2A	.	2f
.	2B	.	2g
=97	=97	=97	=97
0r	2A	0r	2f
.	2G	.	2g
.	1A	.	4f#i
.	.	.	4e
.	.	.	2f#i
=98	=98	=98	=98
1r	1.G	0r	0g
[1C	.	.	.
.	2G	.	.
=99	=99	=99	=99
2C]	1c	0r	0r
2C	.	.	.
1F	1c	.	.
=100	=100	=100	=100
1F	1A	0r	0r
1D	1A	.	.
=101	=101	=101	=101
1D	1.d	0r	0r
1G	.	.	.
.	4c	.	.
.	4B	.	.
=102	=102	=102	=102
1F	2A	0r	0r
.	1c	.	.
2E	.	.	.
[2D	2B	.	.
=103	=103	=103	=103
2D]	1A	0r	0r
2C	.	.	.
1BB-	2G	.	.
.	[2F	.	.
=104	=104	=104	=104
2.AA	2F]	0r	0r
.	2.E	.	.
4BB-	.	.	.
2.C	.	.	.
.	4F	.	.
.	[2G	.	.
4D	.	.	.
=105	=105	=105	=105
2.E	4G]	0r	0r
.	4A	.	.
.	2.B	.	.
4F	.	.	.
2.G	.	.	.
.	4c	.	.
.	[2d	.	.
4F	.	.	.
=106	=106	=106	=106
2D	4d]	0r	0r
.	4c	.	.
2.G	4B	.	.
.	4A	.	.
.	2B	.	.
4F	.	.	.
4E	[2c	.	.
4D	.	.	.
=107	=107	=107	=107
2C	4c]	0r	0r
.	4B	.	.
2D	1A	.	.
1BB-	.	.	.
.	2G	.	.
=108	=108	=108	=108
[0AA	[0A	1r	0c
.	.	1E	.
=109	=109	=109	=109
0AA]	0A]	1F	0c
.	.	1E	.
=110	=110	=110	=110
1A	0r	1D	1r
1D	.	2r	1f
.	.	2A	.
=111	=111	=111	=111
2r	0r	2B	1g
2C	.	2c	.
1D	.	1d	1f
=112	=112	=112	=112
1AA	0r	2.c	2.e
.	.	4d	4f
1r	.	2e	2g
.	.	2f	2a
=113	=113	=113	=113
0r	0r	2e	2g
.	.	2f	1cc
.	.	1d	.
.	.	.	2b
=114	=114	=114	=114
0r	0r	2c	1.cc
.	.	2A	.
.	.	2c	.
.	.	2d	4b
.	.	.	4a
=115	=115	=115	=115
0r	0r	2B	2g
.	.	2A	2a
.	.	2B	2g
.	.	2c	2e
=116	=116	=116	=116
0r	0r	2A	2f
.	.	2G	2g
.	.	2A	2f
.	.	2B-	2d
=117	=117	=117	=117
0r	0r	2G	2e
.	.	2F	2f
.	.	2G	2e
.	.	2A	2c
=118	=118	=118	=118
0r	0r	2Bn	2d
.	.	1c	1e
.	.	4B	4d
.	.	4A	4c
=119	=119	=119	=119
0r	0r	2G	2B
.	.	2A	1A
.	.	2.c	.
.	.	.	2e
.	.	4B	.
=120	=120	=120	=120
0r	0r	2A	2f
.	.	2B	2g
.	.	2A	2.a
.	.	[2c	.
.	.	.	8gL
.	.	.	8aJ
=121	=121	=121	=121
1r	0r	4c]	2g
.	.	4B	.
.	.	2A	1f
1C	.	1G	.
.	.	.	2e
=122	=122	=122	=122
0D	1r	1F	0f
.	1F	[1f	.
=123	=123	=123	=123
0C	0G	2f]	0r
.	.	4e	.
.	.	4d	.
.	.	1e	.
=124	=124	=124	=124
1r	1F	2.f	0r
.	.	4e	.
1F	1F	4d	.
.	.	4c	.
.	.	[2f	.
=125	=125	=125	=125
1G	1C	2f]	1r
.	.	4e	.
.	.	4d	.
1G	1C	1e	1g
=126	=126	=126	=126
0F	1c	1f	0a
.	1d	1F	.
=127	=127	=127	=127
0C	1.e	1.E	1g
.	.	.	1cc
.	4d	[2A	.
.	4c	.	.
=128	=128	=128	=128
0r	2B	2A]	1dd
.	2A	4G	.
.	.	4F	.
.	1B	1G	1dd
=129	=129	=129	=129
2r	1A	0A	2.cc
2.c	.	.	.
.	.	.	4b
.	1c	.	4a
4B-	.	.	4g
[2A	.	.	[2cc
=130	=130	=130	=130
2A]	1d	0r	2cc]
4G	.	.	4b
4F	.	.	4a
1G	1d	.	1b
=131	=131	=131	=131
1A	1c	2r	2cc
.	.	2.c	2r
1AA	1c	.	1cc
.	.	4B	.
.	.	2A	.
=132	=132	=132	=132
0r	1B	4B	1dd
.	.	4A	.
.	.	4G	.
.	.	4F	.
.	1B	1G	1dd
=133	=133	=133	=133
0r	2A	1A	1cc
.	2.c	.	.
.	.	1c	1cc
.	4B	.	.
.	2A	.	.
=134	=134	=134	=134
0r	4B	1d	1b
.	4A	.	.
.	4G	.	.
.	4F	.	.
.	1G	1d	1b
=135	=135	=135	=135
0AA	0A	1c	2a
.	.	.	2.cc
.	.	1c	.
.	.	.	4b
.	.	.	2a
=136	=136	=136	=136
0E	0r	1B	4b
.	.	.	4a
.	.	.	4g
.	.	.	4f
.	.	1B	1g
=137	=137	=137	=137
1F	1c	1A	1a
2BB-	2d	2r	2.b-
[2F	[2c	2F	.
.	.	.	4a
=138	=138	=138	=138
2F]	4c]	2c	4g
.	4A	.	4f
2BB-	2B-	2d	1f
1C	1G	1c	.
.	.	.	2e
=139	=139	=139	=139
1.A	0F	1.c	1f
.	.	.	1r
2G	.	2B	.
=140	=140	=140	=140
1F	0r	1A	1.cc
1E	.	1G	.
.	.	.	2bn
=141	=141	=141	=141
1F	1.c	1F	1a
1C	.	1E	1g
.	2B	.	.
=142	=142	=142	=142
1D	1A	1F	1f
1E	1G	1C	1e
=143	=143	=143	=143
1.F	2.F	2D	1d
.	.	2.F	.
.	4E	.	.
.	1D	.	1f
.	.	4G	.
4E	.	4A	.
4D	.	4B	.
=144	=144	=144	=144
1C	1.G	1c	1e
1BB-	.	1d	[1d
.	2F	.	.
=145	=145	=145	=145
1C	1E	1G	2d]
.	.	.	2c
1FF	1F	1A	[1c
=146	=146	=146	=146
0GG	0D	1.G	2c]
.	.	.	4B
.	.	.	4A
.	.	.	1B
.	.	2F	.
=147	=147	=147	=147
1r	0C	1.E	[0c
1E	.	.	.
.	.	2D	.
=148	=148	=148	=148
1.G	1r	[0C	0c]
.	1E	.	.
2F	.	.	.
=149	=149	=149	=149
1.E	1.G	0C]	1r
.	.	.	1e
2D	2F	.	.
=150	=150	=150	=150
0C	0E	0c	1.g
.	.	.	2f
=151	=151	=151	=151
1r	1.A	1c	0e
1C	.	2.c	.
.	2G	.	.
.	.	4B	.
=152	=152	=152	=152
1D	1F	2A	1.a
.	.	1d	.
1AA	1E	.	.
.	.	2c#i	2g
=153	=153	=153	=153
1BB-	2.D	1d	1f
.	4C	.	.
1C	[1G	1r	1e
=154	=154	=154	=154
1BB-	1G]	2r	1d
.	.	2D	.
1AA	1A	2E	1c
.	.	2C	.
=155	=155	=155	=155
0GG	0B-	1D	0g
.	.	1d	.
=156	=156	=156	=156
1AA	0A	2.c	1f
.	.	4B	.
1C	.	4A	[1e
.	.	4G	.
.	.	[2A	.
=157	=157	=157	=157
0BB-	0D	2A]	2e]
.	.	4G	2d
.	.	4F	.
.	.	1G	[1d
=158	=158	=158	=158
0AA	0E	0A	2d]
.	.	.	4c#i
.	.	.	4B
.	.	.	1c#i
=159	=159	=159	=159
0Dl	0Dl	1B-i	0dl
.	.	1Al	.
!!LO:LB:i:g=z
=160||	=160||	=160||	=160||
*>B	*>B	*>B	*>B
*clefF4	*clefGv2	*clefGv2	*clefG2
*k[b-]	*k[]	*k[]	*k[]
*M2/1	*M2/1	*M2/1	*M2/1
*met(C|)	*met(C|)	*met(C|)	*met(C|)
!!section: Et incarnatus est
!!!OMD: Et incarnatus est
0r	0r	0r	0f
=161	=161	=161	=161
0r	0r	0r	1f
.	.	.	1f
=162	=162	=162	=162
0r	0r	0c	1e
.	.	.	4e
.	.	.	4d
.	.	.	4c
.	.	.	4B
=163	=163	=163	=163
0r	0r	1c	2A
.	.	.	2.e
.	.	1c	.
.	.	.	4f
.	.	.	4g
.	.	.	4a
=164	=164	=164	=164
0r	0r	2B	2g
.	.	2A	1a
.	.	1B	.
.	.	.	2g#i
=165	=165	=165	=165
0F	2r	1A	0a
.	2.A	.	.
.	.	1D	.
.	4G	.	.
.	4F	.	.
.	4E	.	.
=166	=166	=166	=166
1F	2D	0r	0r
.	2.A	.	.
1F	.	.	.
.	4B	.	.
.	4c	.	.
.	4d	.	.
=167	=167	=167	=167
2E	2c	0r	0r
2D	1d	.	.
1E	.	.	.
.	2c#i	.	.
=168	=168	=168	=168
1.D	2.d	1.F	1r
.	4c	.	.
.	2B	.	1dd
4C	[2A	4E	.
4BB-	.	4D	.
=169	=169	=169	=169
1AA	4A]	2E	1cc
.	4G	.	.
.	4F#i	2D	.
.	4E	.	.
1AA	1F#i	1C	1cc
=170	=170	=170	=170
1GG	0G	1D	1.b
1GG	.	1d	.
.	.	.	2a
=171	=171	=171	=171
1.C	1E	[0e	1g
.	1A	.	1cc
2D	.	.	.
=172	=172	=172	=172
1E	1G	1e]	1b
[1F	1F	2c	[1a
.	.	[2A	.
=173	=173	=173	=173
2F]	1c	4A]	2a]
.	.	4B	.
2E	.	4c	4g
.	.	4d	4f
1C	[1c	1e	2g
.	.	.	2e
=174	=174	=174	=174
1D	2c]	1d	2f
.	4B-	.	2g
.	4A	.	.
1D	1B-i	1r	2f
.	.	.	4e
.	.	.	4d
=175	=175	=175	=175
[0C	1c	1G	0e
.	[1c	4A	.
.	.	4B	.
.	.	4c	.
.	.	4d	.
=176	=176	=176	=176
0C]	2c]	2e	1r
.	4B-i	1f	.
.	4A	.	.
.	1G	.	1g
.	.	2e	.
=177	=177	=177	=177
0r	2.F	1.f	1a
.	4G	.	.
.	4A	.	[1cc
.	4G	.	.
.	[2A	4e	.
.	.	4d	.
=178	=178	=178	=178
1r	2A]	1.c	2cc]
.	4G	.	4b
.	4F	.	4a
1C	2.E	.	1g
.	.	2B	.
.	4D	.	.
=179	=179	=179	=179
1D	1F	1.A	1f
[1F	[1D	.	[1a
.	.	2G	.
=180	=180	=180	=180
2F]	1D]	1.F	2a]
2E	.	.	2g
2.D	1A	.	1f
.	.	2E	.
4C	.	.	.
=181	=181	=181	=181
1BB-	1B-	1D	1g
1AA	2c	1A	1f
.	[2F	.	.
=182	=182	=182	=182
0GG	2F]	1B-	1g
.	2E	.	.
.	2E	1G	1b-i
.	4D	.	.
.	4E	.	.
=183	=183	=183	=183
0FF	1F	1A	1.a
.	1A	[1c	.
.	.	.	4g
.	.	.	4f
=184	=184	=184	=184
[0C	0G	1c]	0e
.	.	1c	.
=185	=185	=185	=185
0C]	0E	0c	1r
.	.	.	1g
=186	=186	=186	=186
1r	1A	1c	1e
1C	1G	[1e	1e
=187	=187	=187	=187
1AA	1.c	2e]	1.a
.	.	2d	.
1AA	.	1c	.
.	2B	.	2g
=188	=188	=188	=188
1.D	2A	1d	0f
.	2G	.	.
.	[1F	[1A	.
4C	.	.	.
4BB-	.	.	.
=189	=189	=189	=189
1D	2F]	2A]	1f
.	4E	2B	.
.	4F	.	.
1C	2G	1c	1e
.	2E	.	.
=190	=190	=190	=190
1BB-	2F	1d	1d
.	2.G	.	.
[1C	.	1c	[1e
.	4F	.	.
.	4E	.	.
.	4D	.	.
=191	=191	=191	=191
2C]	1C	2r	2e]
4BB-	.	2C	4d
4AA	.	.	4c
1GG	[1G	2D	1B
.	.	[2E	.
=192	=192	=192	=192
0AA	2G]	4E]	1.c
.	.	4D	.
.	4F#i	4C	.
.	4E	4BB	.
.	1F#i	1C	.
.	.	.	4B
.	.	.	4A
=193	=193	=193	=193
[0GG	1.G	1D	1.B
.	.	1E	.
.	2A	.	2c
=194	=194	=194	=194
0GG]	1.B	2D	1.d
.	.	1G	.
.	2c	4F	2e
.	.	4E	.
=195	=195	=195	=195
0r	1d	2.D	1.f
.	.	4E	.
.	2d	4F	.
.	.	4G	.
.	[2c	[2A	[2e
=196	=196	=196	=196
0r	2c]	2A]	2e]
.	4B	4G	1a
.	4A	4F	.
.	1B	1E	.
.	.	.	2g
=197	=197	=197	=197
0AA	1.A	1e	4a
.	.	.	4g
.	.	.	4f
.	.	.	4e
.	.	1c	2f
.	4G	.	[2e
.	4F	.	.
=198	=198	=198	=198
1AA	4G	1r	2e]
.	4F	.	.
.	4E	.	1d
.	4D	.	.
1AA	1E	1A	.
.	.	.	2c#i
=199	=199	=199	=199
1BB-	2D	1F	1d
.	1G	.	.
1GG	.	1B-	[1g
.	2G	.	.
=200	=200	=200	=200
1.C	2E	1G	2g]
.	2C	.	2g
.	1c	1E	[1g
2C	.	.	.
=201	=201	=201	=201
1C	0c	1.e	1g]
1C	.	.	1g
.	.	2e	.
=202	=202	=202	=202
1F	1A	1f	1a
1G	1d	2d	1b
.	.	[2g	.
=203	=203	=203	=203
0A	1c	2g]	1.cc
.	.	4f#i	.
.	.	4e	.
.	1c	1f#i	.
.	.	.	4b
.	.	.	4a
=204	=204	=204	=204
0G	1d	0g	1b
.	1B	.	1dd
=205	=205	=205	=205
0r	0A	0r	1cc
.	.	.	1cc
=206	=206	=206	=206
1r	0G	0r	1dd
1G	.	.	1b
=207	=207	=207	=207
1F	0r	0r	0a
1F	.	.	.
=208	=208	=208	=208
1G	0r	1r	0g
1E	.	1c	.
=209	=209	=209	=209
0D	0r	1B	0r
.	.	1B	.
=210	=210	=210	=210
1C	0r	1c	1r
1F	.	1A	1f
=211	=211	=211	=211
0C	0c	0G	1e
.	.	.	1e
=212	=212	=212	=212
0D	0A	0F	0f
=213	=213	=213	=213
0GG	1.B-	0G	1.d
.	4A	.	2e
.	4G	.	.
=214	=214	=214	=214
0D	2.F	1A	[0f
.	4E	.	.
.	4D	2B-	.
.	4E	.	.
.	4F	[2A	.
.	4G	.	.
=215	=215	=215	=215
1D	2.A	4A]	1f]
.	.	4G	.
.	.	4F	.
.	4G	4E	.
[1D	2A	2D	[1f
.	2B-i	[2d	.
=216	=216	=216	=216
1D]	2A	2d]	1f]
.	2F	2D	.
1C	2G	2.E	1e
.	[2A	.	.
.	.	8DL	.
.	.	8EJ	.
=217	=217	=217	=217
1BB-	2A]	4F	0d
.	.	4E	.
.	4G	4D	.
.	4F	4C	.
1BB-	1G	1D	.
=218	=218	=218	=218
[0AAl	[0Al	1E	[0c#l
.	.	1F	.
=219	=219	=219	=219
0AA]	0A]	0El	0c#]
!!LO:LB:i:g=z
=220||	=220||	=220||	=220||
*>C	*>C	*>C	*>C
*clefF4	*clefGv2	*clefGv2	*clefG2
*k[b-]	*k[]	*k[]	*k[]
*M2/1	*M2/1	*M2/1	*M2/1
*met(C|)	*met(C|)	*met(C|)	*met(C|)
!!section: Et resurrexit
!!!OMD: Et resurrexit
0r	0E	0r	0r
=221	=221	=221	=221
0AA	1E	0r	0r
.	2.E	.	.
.	8DL	.	.
.	8EJ	.	.
=222	=222	=222	=222
1AA	2F	0r	0r
.	2E	.	.
2.AA	1C	.	.
8GGL	.	.	.
8AAJ	.	.	.
=223	=223	=223	=223
2BB-	2D	0r	0r
2AA	1C	.	.
1FF	.	.	.
.	2D	.	.
=224	=224	=224	=224
2GG	2E	0r	0r
1FF	2F	.	.
.	2D	.	.
2GG	[2E	.	.
=225	=225	=225	=225
2AA	2E]	0r	0r
2BB-	1D	.	.
1GG	.	.	.
.	2E	.	.
=226	=226	=226	=226
2AA	2F	0r	0r
1GG	2G	.	.
.	2E	.	.
2AA	[2F	.	.
=227	=227	=227	=227
2BB-	2F]	0r	0r
2C	1E	.	.
1AA	.	.	.
.	2F	.	.
=228	=228	=228	=228
2BB-	2G	0r	0r
1AA	2A	.	.
.	2F	.	.
2BB-	[2G	.	.
=229	=229	=229	=229
2C	2G]	0r	0r
2D	1F	.	.
1BB-	.	.	.
.	2G	.	.
=230	=230	=230	=230
2C	2A	0r	0r
2BB-	2.B-	.	.
2GG	.	.	.
.	4A	.	.
[2G	4B-i	.	.
.	4c	.	.
=231	=231	=231	=231
2G]	2B-i	0r	0r
4F	4A	.	.
4E	4G	.	.
2F	2A	.	.
2E	[2G	.	.
=232	=232	=232	=232
1C	2G]	0r	0r
.	1c	.	.
1D	.	.	.
.	2B	.	.
=233	=233	=233	=233
1r	1c	0r	0r
1AA	2r	.	.
.	[2E	.	.
=234	=234	=234	=234
1C	2E]	0r	0r
.	1G	.	.
1BB-	.	.	.
.	[2F	.	.
=235	=235	=235	=235
0AA	2F]	0r	0r
.	1E	.	.
.	[2A	.	.
=236	=236	=236	=236
1D	4A]	0r	0r
.	4G	.	.
.	2F	.	.
2C	2E	.	.
2BB-	2D	.	.
=237	=237	=237	=237
2AA	2F	0r	0r
2GG	2E	.	.
2BB-	2D	.	.
[2AA	2E	.	.
=238	=238	=238	=238
2AA]	2F	0r	0r
2GG	2G	.	.
2AA	2E	.	.
2BB-	2D	.	.
=239	=239	=239	=239
2C	2G	0r	0r
2AA	2F	.	.
2GG	2G	.	.
2C	2A	.	.
=240	=240	=240	=240
2BB-	2B-	1r	0r
2C	2G	.	.
2D	2F	2r	.
2E-	2r	2G	.
=241	=241	=241	=241
2C	0r	2A	1r
2BB-	.	2B-	.
2C	.	2G	2r
2D	.	2F	2a
=242	=242	=242	=242
0r	0r	2G	2b
.	.	2A	2cc
.	.	2Bn	2dd
.	.	2c	2g
=243	=243	=243	=243
0r	0r	2A	2f
.	.	2G	2g
.	.	2c	2e
.	.	2B	2d
=244	=244	=244	=244
0r	0r	2c	2g
.	.	2d	2f
.	.	2e	2g
.	.	2c	2a
=245	=245	=245	=245
0r	0r	2d	2b
.	.	1A	2cc
.	.	.	2a
.	.	2B	[2g
=246	=246	=246	=246
0r	0r	2c	2g]
.	.	2A	2cc
.	.	2G	2b
.	.	[2c	2a
=247	=247	=247	=247
0r	0r	2c]	2g
.	.	4B	1a
.	.	4A	.
.	.	1B	.
.	.	.	2g
=248	=248	=248	=248
0r	0r	3%4AV	2f
.	.	.	2e
.	.	.	[1f
.	.	[3%2dZ	.
=249	=249	=249	=249
0r	0r	3%2d]V	2f]
.	.	.	4e
.	.	3%4c#iZ	.
.	.	.	4d
.	.	.	1e
=250	=250	=250	=250
1G	1B-	0d	0d
2F	2A	.	.
2G	[2B-i	.	.
=251	=251	=251	=251
2D	2B-]	0r	0r
1G	4A	.	.
.	4G	.	.
.	1A	.	.
2F#i	.	.	.
=252	=252	=252	=252
1G	4G	2r	1b-
.	4A	.	.
.	4B-i	2G	.
.	4c	.	.
1r	[1d	2F	2a
.	.	2G	[2b-i
=253	=253	=253	=253
0r	1d]	2D	2b-]
.	.	1d	4a
.	.	.	4g
.	2G	.	2b-i
.	2A	4c	[2a
.	.	4B	.
=254	=254	=254	=254
0r	2F	4c	4a]
.	.	4B	4g
.	2E	4A	1g
.	.	4G	.
.	1D	1A	.
.	.	.	2f#i
=255	=255	=255	=255
0r	0r	2G	1.g
.	.	2B	.
.	.	2c	.
.	.	[2d	[2f
=256	=256	=256	=256
0r	0r	4d]	2f]
.	.	4c	.
.	.	1c	2e
.	.	.	1d
.	.	2B	.
=257	=257	=257	=257
1r	0r	1c	0c
2r	.	1A	.
2AA	.	.	.
=258	=258	=258	=258
2.C	2E	0r	0r
.	2.G	.	.
4C	.	.	.
2C	.	.	.
.	4G	.	.
2C	2G	.	.
=259	=259	=259	=259
2BB-	2G	0r	0r
2BB-	2F	.	.
1AA	2F	.	.
.	[2E	.	.
=260	=260	=260	=260
1C	2E]	0r	0r
.	1G	.	.
2.GG	.	.	.
.	[2D	.	.
4AA	.	.	.
=261	=261	=261	=261
4BB-	4D]	0r	0r
4C	4E	.	.
1D	4F	.	.
.	4G	.	.
.	2.A	.	.
2C	.	.	.
.	8GL	.	.
.	8AJ	.	.
=262	=262	=262	=262
2D	2Bn	0r	0r
2F	2A	.	.
2E	2c	.	.
[2D	[2B	.	.
=263	=263	=263	=263
2D]	4B]	0r	0r
.	4A	.	.
2C	1A	.	.
1BB-	.	.	.
.	2G	.	.
=264	=264	=264	=264
0AA	1A	2r	0r
.	.	2.c	.
.	1r	.	.
.	.	4B	.
.	.	4A	.
.	.	4G	.
=265	=265	=265	=265
2r	0r	2F	0r
2GG	.	2G	.
2AA	.	2F	.
[2C	.	2E	.
=266	=266	=266	=266
4C]	0r	2r	0r
4D	.	.	.
2BB-	.	2G	.
1AA	.	2A	.
.	.	[2c	.
=267	=267	=267	=267
1E	2r	4c]	1r
.	.	4d	.
.	2G	2B	.
1AA	2A	2A	2r
.	[2c	[2e	2g
=268	=268	=268	=268
0r	2c]	2e]	2a
.	1A	2c	1cc
.	.	2e	.
.	2d	2f	[2a
=269	=269	=269	=269
0r	2c	2e	2a]
.	2B	2d	2dd
.	2A	2e	2cc
.	2G	2E	[2b
=270	=270	=270	=270
0r	1A	1F	4b]
.	.	.	4a
.	.	.	1a
.	1B	[1E	.
.	.	.	2g#i
=271	=271	=271	=271
1AA	2.A	2E]	1.a
.	.	2F	.
.	4B	.	.
1AA	1c	1E	.
.	.	.	2g
=272	=272	=272	=272
1D	1d	2D	1f
.	.	2F	.
1C	1e	2G	2r
.	.	2A	2cc
=273	=273	=273	=273
1D	2.d	2r	2b
.	.	2f	1a
.	4c	.	.
1E	1B	2.e	.
.	.	.	2g#i
.	.	4d	.
=274	=274	=274	=274
1.F	2.A	4c	0a
.	.	4B	.
.	.	2A	.
.	4B	.	.
.	2c	2A	.
4E	[2d	2F	.
4D	.	.	.
=275	=275	=275	=275
1E	2d]	1G	1g
.	2c#i	.	.
1D	1d	2A	2f
.	.	[2f	[2a
=276	=276	=276	=276
1F	0r	4f]	4a]
.	.	4e	4b
.	.	2f	1cc
1G	.	1d	.
.	.	.	2b
=277	=277	=277	=277
1.A	1F	1c	1.cc
.	1F	2.c	.
4G	.	.	4b
4F	.	4B	4a
=278	=278	=278	=278
2E	2G	2c	2g
2D	2.A	1d	1f
2F	.	.	.
.	4B	.	.
2E	[2c	2e	2g
=279	=279	=279	=279
2F	2c]	2c	1a
1D	1F	2d	.
.	.	2A	2.d
4C	2G	2B	.
4BB-	.	.	4e
=280	=280	=280	=280
2AA	2A	2c	2f
2GG	2B-	1d	1g
2BB-	2G	.	.
2AA	2A	2c	4f
.	.	.	4e
=281	=281	=281	=281
2BB-	2F	1B-	4d
.	.	.	4c
2GG	2G	.	1d
1AA	1E	1A	.
.	.	.	2c#i
=282	=282	=282	=282
1BB-	4D	2d	1d
.	4E	.	.
.	4F	1d	.
.	4G	.	.
1AA	1A	.	1r
.	.	2c#i	.
=283	=283	=283	=283
2.D	1F	1d	1a
4E	.	.	.
2F	1r	2r	2a
2C	.	[2e	[2g
=284	=284	=284	=284
1C	0r	2e]	2g]
.	.	2e	2g
1r	.	1d	1f
=285	=285	=285	=285
0r	0r	2d	2f
.	.	1c	1e
.	.	2G	2e
=286	=286	=286	=286
0r	0r	2Bn	2d
.	.	1A	1f
.	.	4G	4e
.	.	4F	4d
=287	=287	=287	=287
0r	0r	2E	1c
.	.	2A	.
.	.	1D	1f
=288	=288	=288	=288
2r	1c	0r	0r
1A	.	.	.
.	2.c	.	.
4G	.	.	.
4F	4B	.	.
=289	=289	=289	=289
2E	2c	0r	0r
2D	2.d	.	.
1E	.	.	.
.	4c#i	.	.
.	4c#i	.	.
.	4B	.	.
=290	=290	=290	=290
1D	2d	0r	0r
.	1A	.	.
1F	.	.	.
.	[2c	.	.
=291	=291	=291	=291
1C	2c]	0r	0r
.	4B	.	.
.	4A	.	.
1D	4B	.	.
.	4A	.	.
.	4G	.	.
.	4F	.	.
=292	=292	=292	=292
2.C	4E	0r	0r
.	4D	.	.
.	2A	.	.
4BB-	.	.	.
2AA	2F	.	.
2GG	[2G	.	.
=293	=293	=293	=293
2C	4G]	0r	0r
.	4F	.	.
1C	2E	.	.
.	1D	.	.
2BBni	.	.	.
=294	=294	=294	=294
1C	4C	0r	0r
.	4D	.	.
.	4E	.	.
.	4F	.	.
2.C	4G	.	.
.	4F	.	.
.	4E	.	.
8BB-L	4D	.	.
8AAJ	.	.	.
=295	=295	=295	=295
2GG	2E	0r	0r
2FF	4F	.	.
.	4G	.	.
1F	4A	.	.
.	4B	.	.
.	4c	.	.
.	4B	.	.
=296	=296	=296	=296
1F	4A	0r	0r
.	4G	.	.
.	2A	.	.
2.G	2G	.	.
.	[2d	.	.
4F	.	.	.
=297	=297	=297	=297
2E	4d]	0r	0r
.	4c	.	.
4D	1c	.	.
4C	.	.	.
1D	.	.	.
.	2B	.	.
=298	=298	=298	=298
1C	1c	1G	0r
2C	1r	1G	.
[2E-	.	.	.
=299	=299	=299	=299
2E-]	0r	1G	1r
4D	.	.	.
4C	.	.	.
1BB-	.	[1d	1d
=300	=300	=300	=300
0BB-	0r	2d]	1d
.	.	1B-	.
.	.	.	1d
.	.	4A	.
.	.	4G	.
=301	=301	=301	=301
0r	1D	2.F	1.a
.	.	4G	.
.	1D	4A	.
.	.	4B-i	.
.	.	[2A	[2f
=302	=302	=302	=302
0r	1D	4A]	2f]
.	.	4G	.
.	.	4F	4e
.	.	4E	4d
.	2.A	2.F	1c
.	4G	4G	.
=303	=303	=303	=303
0r	4F	1A	1c
.	4E	.	.
.	1F	.	.
.	.	2.A	1d
.	4E	.	.
.	4D	4B	.
=304	=304	=304	=304
0r	1C	2.c	1e
.	.	4B	.
.	2D	2A	2f
.	2E	2G	2g
=305	=305	=305	=305
0r	2.F	2F	2.a
.	.	1D	.
.	4G	.	4g
.	2A	.	2.f
.	[2B-	[2d	.
.	.	.	4e
=306	=306	=306	=306
1r	4B-]	2d]	1d
.	4A	.	.
.	4G	2B	.
.	4F	.	.
1AA	2E	2.c	1e
.	[2A	.	.
.	.	4B	.
=307	=307	=307	=307
1AA	4A]	4c	2r
.	4G	4B	.
.	4F	4A	1cc
.	4E	4G	.
1AA	4F	1A	.
.	4E	.	.
.	2F	.	4b
.	.	.	4a
=308	=308	=308	=308
0E	2G	2G	2b
.	2c	2E	2a
.	4B	2e	4g
.	4A	.	4f
.	2B	[2e	2g
=309	=309	=309	=309
2.F	1A	2e]	2.a
.	.	2d	.
4G	.	.	8gL
.	.	.	8fJ
[1A	2r	2c	4e
.	.	.	4d
.	2D	2d	2f
=310	=310	=310	=310
1A]	1AA	4c	1e
.	.	4B	.
.	.	2c	.
1A	1D	2.d	2d
.	.	.	[2dd
.	.	4c	.
=311	=311	=311	=311
1.G	1d	4B	4dd]
.	.	4A	4cc
.	.	4B	4b
.	.	4c	4a
.	2G	4d	2b
.	.	4e	.
2F	2A	[2d	[2a
=312	=312	=312	=312
1E	2B	2d]	4a]
.	.	.	4g
.	2G	2c	1g
1D	1A	1d	.
.	.	.	2f#i
=313	=313	=313	=313
1r	1G	1B	1g
1A	2.c	1A	2r
.	.	.	2cc
.	4B	.	.
=314	=314	=314	=314
2.A	4A	1c	2.cc
.	4G	.	.
.	1F	.	.
4G	.	.	4b
2F	.	2r	2a
[2E	[2G	[2g	2b
=315	=315	=315	=315
2E]	2G]	2g]	2cc
2D	2r	2f	2dd
2E	1G	1e	2cc
2G	.	.	[2b
=316	=316	=316	=316
1F	1A	4d	4b]
.	.	4c	4a
.	.	2d	1a
1E	1B	2e	.
.	.	2E	2g#i
=317	=317	=317	=317
1r	1A	1F	1a
1GG	2d	1G	2r
.	[2d	.	[2b-i
=318	=318	=318	=318
1GG	2d]	1D	2b-]
.	4c	.	4a
.	4B	.	4g
1D	4A	1r	2f
.	4G	.	.
.	2B	.	[2g
=319	=319	=319	=319
1D	1A	1d	2g]
.	.	.	2f#i
2.E	1G	2B	[1g
.	.	2e	.
4F	.	.	.
=320	=320	=320	=320
0G	1.B	2d	1g]
.	.	1g	.
.	.	.	1r
.	4A	4f	.
.	4G	4e	.
=321	=321	=321	=321
1G	1G	1d	1bn
[1F	2.A	1r	2.cc
.	4G	.	4b
=322	=322	=322	=322
2F]	2F	2r	2a
2E	2G	1c	2g
1D	2A	.	2f
.	2F	2B	4e
.	.	.	4d
=323	=323	=323	=323
1C	1G	1c	0e
1r	1A	1c	.
=324	=324	=324	=324
1G	1B-	1d	0d
1G	2.B-i	2r	.
.	.	2g	.
.	4c	.	.
=325	=325	=325	=325
1G	1d	2.g	0r
.	.	4f	.
2.G	1r	2e	.
.	.	2d	.
4F	.	.	.
=326	=326	=326	=326
2E	1r	2c	0r
1D	.	2d	.
.	2r	2f	.
2C	2c	[2e	.
=327	=327	=327	=327
2D	2B	4e]	2r
.	.	4d	.
2F	2A	1d	2.a
1E	2B	.	.
.	.	.	4g
.	2G	2c	[2g
=328	=328	=328	=328
1D	1A	1d	2g]
.	.	.	2f#i
1E	1G	1B	1g
=329	=329	=329	=329
1C	1E	1e	2r
.	.	.	2g
1r	2F	1d	2a
.	2G	.	2b
=330	=330	=330	=330
0r	1A	1c	1cc
.	2A	2r	2cc
.	2A	2c	2cc
=331	=331	=331	=331
0r	2G	2d	2b
.	2G	2e	2b
.	1F	1f	1a
=332	=332	=332	=332
0r	2r	2f	2dd
.	2F	2f	1dd
.	2G	2e	.
.	2A	2e	2cc#i
=333	=333	=333	=333
1r	1.B-	1d	0dd
2r	.	2g	.
2BB-	2B-i	[2g	.
=334	=334	=334	=334
2C	2A	2g]	0r
2D	2A	2f#i	.
[1E-	1G	[1g	.
=335	=335	=335	=335
2E-]	2c	1g]	0r
2E-i	1c	.	.
2D	.	1r	.
2D	2B	.	.
=336	=336	=336	=336
1C	2c	0r	0r
.	1A	.	.
2F	.	.	.
[2F	4G	.	.
.	4F	.	.
=337	=337	=337	=337
2F]	1G	0r	0r
2E	.	.	.
2F	2A	.	.
2G	2B-i	.	.
=338	=338	=338	=338
2D	2A	0r	0r
2F	1d	.	.
1E	.	.	.
.	2c#i	.	.
=339	=339	=339	=339
1D	1d	1f	1a
2r	1d	[1f	[1a
2D	.	.	.
=340	=340	=340	=340
2D	1d	2f]	2a]
4C	.	4e	2a
4BB-	.	4d	.
2AA	1c	2e	1a
2AA	.	2c	.
=341	=341	=341	=341
2GG	1B-	1d	1b-
2GG	.	.	.
2.C	2c	2e	1g
.	4B-i	4d	.
4D	4A	4c	.
=342	=342	=342	=342
2E	2G	2B	2g
2.F	2F	2A	2.a
.	2D	2F	.
4E	.	.	4g
2C	2E	[2c	[2g
=343	=343	=343	=343
1D	1F	4c]	4g]
.	.	4A	4f
.	.	2B	1f
1C	1G	1c	.
.	.	.	2e
=344	=344	=344	=344
0r	1F	2A	1f
.	.	1d	.
.	1D	.	1r
.	.	4c	.
.	.	4B	.
=345	=345	=345	=345
0r	0r	4A	1f
.	.	4G	.
.	.	2.A	.
.	.	.	2f
.	.	4G	.
.	.	4F	[2f
.	.	4E	.
=346	=346	=346	=346
0r	1d	1D	2f]
.	.	.	2f
.	2c	1A	1e
.	2c	.	.
=347	=347	=347	=347
0r	2B	0r	2.d
.	2.d	.	.
.	.	.	4e
.	.	.	2f
.	4c	.	.
.	4B	.	[2g
.	4A	.	.
=348	=348	=348	=348
0r	2G	0r	4g]
.	.	.	4f
.	2.c	.	4e
.	.	.	4d
.	.	.	1c
.	4B	.	.
.	4A	.	.
.	4G	.	.
=349	=349	=349	=349
0r	4F	0r	1d
.	4E	.	.
.	1F	.	.
.	.	.	1d
.	4E	.	.
.	4D	.	.
=350	=350	=350	=350
0r	2C	1r	2.e
.	1c	.	.
.	.	.	4f
.	.	1G	1d
.	2B	.	.
=351	=351	=351	=351
1r	2c	1A	2c
.	2d	.	1f
1C	2.c	1G	.
.	.	.	2e
.	4B-	.	.
=352	=352	=352	=352
1D	2A	1F	1f
.	2B-	.	.
1E	1G	1C	1g
=353	=353	=353	=353
0F	1F	1c	1a
.	[1c	1c	1a
=354	=354	=354	=354
1F	1c]	1A	1.a
1F	1c	1F	.
.	.	.	2a
=355	=355	=355	=355
1F	1c	0f	1a
1F	1c	.	1a
=356	=356	=356	=356
[0D	1.d	0f	1.a
.	4c	.	2g
.	4B	.	.
=357	=357	=357	=357
1D]	2A	1r	1f
.	2F	.	.
1C	2G	2r	1e
.	2A	[2A	.
=358	=358	=358	=358
1BB-	2.D	4A]	1d
.	.	4G	.
.	.	1G	.
.	8CL	.	.
.	8DJ	.	.
1AA	2E	.	2c
.	2C	2F	[2c
=359	=359	=359	=359
1GG	1.D	0G	2c]
.	.	.	4B
.	.	.	4A
1GG	.	.	1B
.	2E	.	.
=360	=360	=360	=360
0FF	1F	2.A	1c
.	.	4B	.
.	1F	2c	1r
.	.	2d	.
=361	=361	=361	=361
1r	2E	1e	1g
.	2E	.	.
1C	2G	2e	2e
.	[2A	[2c	2e
=362	=362	=362	=362
2AA	4A]	4c]	1a
.	4B	4d	.
2AA	2c	2e	.
[1D	1F	[1f	2.a
.	.	.	4g
=363	=363	=363	=363
2D]	1A	1f]	2f
4C	.	.	4e
4BB-	.	.	4d
2D	2.A	2r	2f
2C	.	2c	2e
.	8GL	.	.
.	8AJ	.	.
=364	=364	=364	=364
2BB-	2B-i	2d	2d
2.C	1G	1c	2.e
4BB-	.	.	4d
2GG	2G	2B	[2d
=365	=365	=365	=365
1AA	2.E	1A	2d]
.	.	.	2c
.	4F	.	.
1GG	1G	1B-	[1d
=366	=366	=366	=366
0AA	0E	1A	2d]
.	.	.	4c#i
.	.	.	4B
.	.	2r	1c#i
.	.	2A	.
=367	=367	=367	=367
1BB-	1D	2F	1d
.	.	2G	.
1AA	1C	2A	[1e
.	.	2c	.
=368	=368	=368	=368
1GG	0D	2B-	2e]
.	.	4A	2d
.	.	4G	.
1BB-	.	2F	[1d
.	.	2G	.
=369	=369	=369	=369
0AA	0E	1A	2d]
.	.	.	4c#i
.	.	.	4B
.	.	[1A	1c#i
=370	=370	=370	=370
[0Dl	[0Dl	2A]	[0dl
.	.	4G	.
.	.	4F	.
.	.	1B-i	.
=371	=371	=371	=371
0D]	0D]	0Al	0d]
==	==	==	==
*-	*-	*-	*-
!!!RDF**kern: l=long note in original notation
!!!RDF**kern: i=editorial accidental
!!!RDF**kern: V=start of tuplet marker
!!!RDF**kern: Z=end of tuplet marker
!!!ENC:	Joel Chapman 2013/09/04
!!!END:	2013/09/04/
!!!EED:	Jesse Rodin
!!!EEV:	2014/01/04/
!!!ONB:	Translated from MusicXML and edited on 2014/01/04/ by Craig Sapp
!!muse2ps: T^@{OPR}^u^@{ONM}{. }@{OTL}^C^@{COM}^i2I150v85,85,85,150Q16
